public/icons/file-cloud.svg

<svg width="24" height="24" viewBox="0 0 24 24" fill="none" xmlns="http://www.w3.org/2000/svg">
<path d="M13 2H7C5.34315 2 4 3.34315 4 5V15.0921C4.24076 15.0319 4.49187 15 4.75 15C6.3406 15 7.66433 16.2099 7.94508 17.8079C9.13887 18.2271 10 19.4188 10 20.8235C10 21.2392 9.92461 21.6362 9.78751 22H17C18.6569 22 20 20.6569 20 19V10H17C14.7909 10 13 8.20914 13 6V2Z" fill="#1574E5"/>
<path d="M19.7965 8C19.6797 7.6993 19.5143 7.41716 19.3047 7.1656L15.8995 3.07945C15.6469 2.77634 15.3405 2.52989 15 2.34941V6C15 7.10457 15.8954 8 17 8H19.7965Z" fill="#1574E5"/>
<path d="M3.5 22C2.67157 22 2 21.3416 2 20.5294C2 19.9195 2.3787 19.3963 2.91813 19.1736C2.90618 19.088 2.9 19.0006 2.9 18.9118C2.9 17.8559 3.77304 17 4.85 17C5.80436 17 6.5986 17.6722 6.76705 18.5599C7.48332 18.7928 8 19.4549 8 20.2353C8 21.2099 7.19411 22 6.2 22H3.5Z" fill="#1574E5"/>
</svg>

<svg xmlns="http://www.w3.org/2000/svg" width="24" height="24" fill="none"><path fill="#1574E5" d="M13 2H7a3 3 0 0 0-3 3v10.092q.361-.091.75-.092c1.59 0 2.914 1.21 3.195 2.808 1.194.42 2.055 1.61 2.055 3.015 0 .416-.075.813-.212 1.177H17a3 3 0 0 0 3-3v-9h-3a4 4 0 0 1-4-4z"/><path fill="#1574E5" d="M19.797 8a3 3 0 0 0-.492-.834L15.9 3.079a3 3 0 0 0-.9-.73V6a2 2 0 0 0 2 2zM3.5 22c-.828 0-1.5-.658-1.5-1.47 0-.61.379-1.134.918-1.356a2 2 0 0 1-.018-.262C2.9 17.856 3.773 17 4.85 17a1.94 1.94 0 0 1 1.917 1.56A1.77 1.77 0 0 1 8 20.235C8 21.21 7.194 22 6.2 22z"/></svg>
